lib/logo_tmp/nrk-logo-nrk-p3-title-below-on-light.svg

<svg width="36" height="36" viewBox="0 0 36 36" fill="none" xmlns="http://www.w3.org/2000/svg">
<path fill-rule="evenodd" clip-rule="evenodd" d="M0 0H36V36H0V0ZM11.6262 15.9996H8.30773V28.0565H11.6262V15.9996ZM15.8337 15.9996H12.1072C12.1072 15.9996 14.2244 19.4706 14.2483 19.5143C14.4105 19.7895 14.4204 19.9584 14.262 20.2239L12.1072 23.7516H15.8337C15.8337 23.7516 17.6306 20.8171 17.8763 20.4097C18.1202 20.0022 18.1092 19.7489 17.8665 19.3305C17.6186 18.9087 17.6025 18.8825 16.1454 16.5075L16.144 16.5053L16.1437 16.5049L16.1436 16.5047L15.8337 15.9996ZM26.27 15.9996C26.27 15.9996 27.379 17.7839 27.5044 17.9972C27.7478 18.4169 27.7588 18.6708 27.5141 19.0797C27.3432 19.3631 25.8771 21.7893 25.8771 21.7893C26.1458 22.2278 26.5037 22.8013 26.818 23.3049L26.8183 23.3053C27.141 23.8225 27.4177 24.2659 27.5042 24.4131C27.7477 24.8327 27.7587 25.0867 27.5141 25.4956C27.4674 25.5729 27.3725 25.7323 27.248 25.9413C26.9165 26.4977 26.3753 27.4063 25.9773 28.0565H22.5724L24.4367 24.9966L22.5031 21.7555L24.2371 18.9179H20.0365L18.2943 15.9996H26.27ZM19.8319 22.1909C19.3071 23.0472 18.4292 24.4818 18.2649 24.7616C18.0304 25.1658 18.0198 25.4105 18.2555 25.8042C18.4199 26.0772 19.3048 27.5233 19.832 28.3846C20.3593 27.5232 21.2441 26.0771 21.4086 25.8042C21.6442 25.4103 21.6336 25.1658 21.3992 24.7616C21.2346 24.4818 20.3566 23.0472 19.8319 22.1909ZM8.30773 7.43134V14.2139H10.5338V7.43134H8.30773ZM14.8425 14.2139L13.5623 8.51081C13.5008 8.20891 13.3372 7.93741 13.0991 7.74183C12.8614 7.5377 12.5574 7.42727 12.244 7.43134H10.8777L12.4063 14.2139H14.8425ZM15.1769 7.43134V14.2139H17.4029V7.43134H15.1769ZM18.4013 9.8291C18.6083 9.95019 18.8442 10.0129 19.0841 10.0106C19.084 10.0106 19.084 10.0106 19.0839 10.0106H19.0842C19.0842 10.0106 19.0841 10.0106 19.0841 10.0106C19.3226 10.0134 19.5573 9.95062 19.7625 9.8291C19.9648 9.71001 20.1327 9.54049 20.2498 9.33712C20.3709 9.13002 20.4337 8.89403 20.4315 8.65413C20.4341 8.41568 20.3712 8.18109 20.2498 7.97587C20.1314 7.77472 19.9637 7.60703 19.7625 7.48867C19.5573 7.36737 19.3227 7.30458 19.0842 7.30715C18.8444 7.30496 18.6084 7.3677 18.4013 7.48867C18.1981 7.606 18.0286 7.77383 17.9093 7.97587C17.7877 8.18104 17.7248 8.41567 17.7276 8.65413C17.7252 8.89405 17.788 9.13008 17.9093 9.33712C18.0273 9.54138 18.197 9.71105 18.4013 9.8291ZM20.7754 7.43134V14.2139H23.0016V7.43134H20.7754ZM25.9631 11.3719C25.8738 11.2224 25.8261 11.1444 25.8198 11.1378H25.8195C25.7511 11.0463 25.7113 10.9367 25.705 10.8226C25.709 10.714 25.742 10.6084 25.8005 10.5168L27.6923 7.43118H25.2466C25.0938 7.67977 24.9552 7.90585 24.8308 8.10943C24.707 8.31323 24.575 8.53137 24.4347 8.76382C24.2943 8.99627 24.1557 9.22395 24.0188 9.44685C23.8818 9.66975 23.7624 9.86238 23.6605 10.0248C23.5586 10.1872 23.4885 10.3002 23.4503 10.3639C23.3597 10.5006 23.3071 10.6589 23.2976 10.8226C23.3094 10.9932 23.3654 11.1577 23.4599 11.3002C23.498 11.3577 23.5665 11.4691 23.6654 11.6346C23.7639 11.8 23.8817 11.9926 24.0188 12.2125C24.1558 12.4325 24.2944 12.6585 24.4347 12.8908C24.5746 13.1232 24.7066 13.3398 24.8308 13.5404C24.955 13.741 25.0936 13.9655 25.2466 14.2139H27.6923C27.5137 13.921 27.3545 13.6583 27.2147 13.4258C27.0743 13.1932 26.9246 12.9464 26.7655 12.6854C26.6063 12.4244 26.4551 12.1776 26.3118 11.9451C26.1686 11.7124 26.0524 11.5213 25.9631 11.3719Z" fill="black"/>
</svg>

<svg xmlns="http://www.w3.org/2000/svg" viewBox="0 0 36 36"><path fill="#000" fill-rule="evenodd" d="M0 0h36v36H0V0Zm11.626 16H8.308v12.056h3.318V16Zm4.208 0h-3.727s2.117 3.47 2.141 3.514c.163.276.172.444.014.71l-2.155 3.528h3.727s1.797-2.935 2.042-3.342c.244-.408.233-.661-.01-1.08-.247-.421-.264-.447-1.72-2.822l-.002-.003-.31-.505Zm10.436 0s1.109 1.784 1.234 1.997c.244.42.255.674.01 1.083l-1.637 2.71c.269.438.627 1.011.941 1.515.323.518.6.96.686 1.108.244.42.255.674.01 1.083l-.266.445c-.332.557-.873 1.465-1.27 2.116h-3.406l1.865-3.06-1.934-3.241 1.734-2.838h-4.2L18.294 16h7.976Zm-6.438 6.19c-.525.857-1.403 2.292-1.567 2.572-.235.404-.245.648-.01 1.042.165.273 1.05 1.72 1.577 2.58.527-.86 1.412-2.307 1.577-2.58.235-.394.225-.638-.01-1.042-.164-.28-1.042-1.715-1.567-2.571ZM8.308 7.432v6.783h2.226V7.43H8.308Zm6.534 6.783-1.28-5.703a1.342 1.342 0 0 0-.463-.77 1.287 1.287 0 0 0-.855-.31h-1.366l1.528 6.783h2.436Zm.335-6.783v6.783h2.226V7.43h-2.226ZM18.4 9.83c.207.121.443.184.683.182.239.002.473-.06.678-.182a1.356 1.356 0 0 0 .67-1.175 1.304 1.304 0 0 0-.182-.678 1.374 1.374 0 0 0-.488-.487 1.305 1.305 0 0 0-.678-.182 1.363 1.363 0 0 0-1.175.669 1.3 1.3 0 0 0-.181.678 1.346 1.346 0 0 0 .674 1.175Zm2.374-2.398v6.783h2.227V7.43h-2.227Zm5.188 3.94a5.241 5.241 0 0 0-.143-.233.58.58 0 0 1-.115-.315.61.61 0 0 1 .096-.306l1.891-3.086h-2.445a305.985 305.985 0 0 0-.812 1.333 107.797 107.797 0 0 1-.985 1.6.927.927 0 0 0-.152.459c.011.17.067.335.162.477.038.058.107.17.205.335.099.165.217.358.354.578.137.22.275.446.416.678.14.232.272.449.396.65l.416.673h2.445a150.16 150.16 0 0 1-.477-.788 198.775 198.775 0 0 0-.903-1.48c-.143-.234-.26-.425-.349-.574Z" clip-rule="evenodd"/></svg>
